packages/radix-icons/twoTone/15/table.svg

<svg width="15" height="15" fill="none" xmlns="http://www.w3.org/2000/svg">
  <path
    fill-rule="evenodd"
    clip-rule="evenodd"
    d="M2.5 1C1.67157 1 1 1.67157 1 2.5V12.5C1 13.3284 1.67157 14 2.5 14H12.5C13.3284 14 14 13.3284 14 12.5V2.5C14 1.67157 13.3284 1 12.5 1H2.5Z"
    fill="currentColor"
    opacity=".2"
  />
  <path
    fill-rule="evenodd"
    clip-rule="evenodd"
    d="M8 2H12.5C12.7761 2 13 2.22386 13 2.5V5H8V2ZM7 5V2H2.5C2.22386 2 2 2.22386 2 2.5V5H7ZM2 6V9H7V6H2ZM8 6H13V9H8V6ZM8 10H13V12.5C13 12.7761 12.7761 13 12.5 13H8V10ZM2 12.5V10H7V13H2.5C2.22386 13 2 12.7761 2 12.5ZM1 2.5C1 1.67157 1.67157 1 2.5 1H12.5C13.3284 1 14 1.67157 14 2.5V12.5C14 13.3284 13.3284 14 12.5 14H2.5C1.67157 14 1 13.3284 1 12.5V2.5Z"
    fill="currentColor"
  />
</svg>

<svg width="15" height="15" fill="none" xmlns="http://www.w3.org/2000/svg">
  <path
    fill-rule="evenodd"
    clip-rule="evenodd"
    d="M2.5 1A1.5 1.5 0 001 2.5v10A1.5 1.5 0 002.5 14h10a1.5 1.5 0 001.5-1.5v-10A1.5 1.5 0 0012.5 1h-10z"
    fill="currentColor"
    opacity=".2"
  />
  <path
    fill-rule="evenodd"
    clip-rule="evenodd"
    d="M8 2h4.5a.5.5 0 01.5.5V5H8V2zM7 5V2H2.5a.5.5 0 00-.5.5V5h5zM2 6v3h5V6H2zm6 0h5v3H8V6zm0 4h5v2.5a.5.5 0 01-.5.5H8v-3zm-6 2.5V10h5v3H2.5a.5.5 0 01-.5-.5zm-1-10A1.5 1.5 0 012.5 1h10A1.5 1.5 0 0114 2.5v10a1.5 1.5 0 01-1.5 1.5h-10A1.5 1.5 0 011 12.5v-10z"
    fill="currentColor"
  />
</svg>
